X:164
T: Schneiderlied (2-58), S. 153f
N: K1139
O: Luxemburg
S: KINTZELE, Guillaume: An der Ucht, Bd. 2, Luxemburg 1927]
N: in der Quelle mit einer 2. Stimme versehen
R: Spottlied]
M: 4/4
L: 1/16
K: F
F4 | F4F4F4F4 | F4D4C2C2
C4 | D2D2D4E4D2E2 | F8z4
c4 | A4A4A4A4 | A4c4c4
c4 | B4A4B4A4 | B4d4c4
c4 | c2c2c4c6B2 | A8z8
F3FA3Ac4F4 | E4G4c8
C4E4G4E4 | G8F4z4
F3FA3Ac4F4 | E4G4c8
C4E4G4E4 | G8F4
f4 | F4F4F4f4 | F4F4F4z4 | f8F8 | z8
c6B2 | A4A4A4A3G | F4F4F4
C3C | D4D4E4E4 | F4A4c8
F6A2c4F4 | G8F4

